svg/fluentui-system-icons/ic_fluent_circle_image_20_regular.svg

<svg width="20" height="20" viewBox="0 0 20 20" fill="none" xmlns="http://www.w3.org/2000/svg">
<path d="M7.5 3C5.01472 3 3 5.01472 3 7.5C3 9.81628 4.75002 11.7238 7 11.9725V12.9776C4.19675 12.725 2 10.369 2 7.5C2 4.46243 4.46243 2 7.5 2C10.369 2 12.725 4.19675 12.9776 7H11.9725C11.7238 4.75002 9.81628 3 7.5 3ZM16 11C16 11.5523 15.5523 12 15 12C14.4477 12 14 11.5523 14 11C14 10.4477 14.4477 10 15 10C15.5523 10 16 10.4477 16 11ZM10.5 8C9.11929 8 8 9.11929 8 10.5V15.5C8 16.8807 9.11929 18 10.5 18H15.5C16.8807 18 18 16.8807 18 15.5V10.5C18 9.11929 16.8807 8 15.5 8H10.5ZM9 10.5C9 9.67157 9.67157 9 10.5 9H15.5C16.3284 9 17 9.67157 17 10.5V15.5C17 15.7316 16.9475 15.9509 16.8538 16.1467L14.4142 13.7071C13.6332 12.9261 12.3668 12.9261 11.5858 13.7071L9.14619 16.1467C9.05248 15.9509 9 15.7316 9 15.5V10.5ZM9.8533 16.8538L12.2929 14.4142C12.6834 14.0237 13.3166 14.0237 13.7071 14.4142L16.1467 16.8538C15.9509 16.9475 15.7316 17 15.5 17H10.5C10.2684 17 10.0491 16.9475 9.8533 16.8538Z" fill="#212121"/>
</svg>

<svg xmlns="http://www.w3.org/2000/svg" width="20" height="20"><path d="M7.5 3a4.5 4.5 0 0 0-.5 8.973v1.005A5.5 5.5 0 1 1 12.978 7h-1.005A4.5 4.5 0 0 0 7.5 3Zm8.5 8a1 1 0 1 1-2 0 1 1 0 0 1 2 0Zm-5.5-3A2.5 2.5 0 0 0 8 10.5v5a2.5 2.5 0 0 0 2.5 2.5h5a2.5 2.5 0 0 0 2.5-2.5v-5A2.5 2.5 0 0 0 15.5 8h-5ZM9 10.5A1.5 1.5 0 0 1 10.5 9h5a1.5 1.5 0 0 1 1.5 1.5v5c0 .232-.052.45-.146.647l-2.44-2.44a2 2 0 0 0-2.828 0l-2.44 2.44A1.494 1.494 0 0 1 9 15.5v-5Zm.853 6.354 2.44-2.44a1 1 0 0 1 1.414 0l2.44 2.44A1.494 1.494 0 0 1 15.5 17h-5c-.232 0-.45-.052-.647-.146Z"/></svg>
